resources/haticons/SVG/lanyrd.svg

<!-- Generated by IcoMoon.io -->
<svg version="1.1" xmlns="http://www.w3.org/2000/svg" width="24" height="24" viewBox="0 0 24 24">
<title>lanyrd</title>
<path d="M21.75 0h-19.5c-1.237 0-2.25 1.013-2.25 2.25v19.5c0 1.237 1.013 2.25 2.25 2.25h19.5c1.237 0 2.25-1.013 2.25-2.25v-19.5c0-1.237-1.013-2.25-2.25-2.25zM19.275 18.019l-8.166 2.672c-1.866 0.609-2.053 0.511-2.897-2.1l-2.062-6.389c-0.492-1.514-1.992-5.592-2.245-6.375-0.469-1.453-0.469-1.533 2.273-2.423 2.147-0.703 2.236-0.68 3.014 1.744 0.628 1.95 1.031 3.525 1.678 5.517l1.758 5.438 5.616-1.837c1.106-0.366 1.477-0.347 1.791 1.017l0.225 1.031c0.263 1.195-0.342 1.5-0.984 1.706z"></path>
</svg>

<svg xmlns="http://www.w3.org/2000/svg" width="24" height="24"><path d="M21.75 0H2.25A2.257 2.257 0 0 0 0 2.25v19.5A2.257 2.257 0 0 0 2.25 24h19.5A2.257 2.257 0 0 0 24 21.75V2.25A2.257 2.257 0 0 0 21.75 0zm-2.475 18.019l-8.166 2.672c-1.866.609-2.053.511-2.897-2.1L6.15 12.202c-.492-1.514-1.992-5.592-2.245-6.375-.469-1.453-.469-1.533 2.273-2.423 2.147-.703 2.236-.68 3.014 1.744.628 1.95 1.031 3.525 1.678 5.517l1.758 5.438 5.616-1.837c1.106-.366 1.477-.347 1.791 1.017l.225 1.031c.263 1.195-.342 1.5-.984 1.706z"/></svg>
